X: 7
T: Calliope House
R: jig
M: 6/8
L: 1/8
K: Emaj
B|:eBB gBB|fBB gBB|cff f2e|fgf c2e|B3 B2G|
B2c e2f|1 g2b gfe|f3 f2B:|2 g2b gfe|e3 ega|
|:b3 gbb|fbb gbb|a3 gag|fgf fec|BcB B2G|
B2c e2f|1 g2b gfe|f3 fga:|2 g2b gfe| e3 eB|


Tune 15	Setting 12382

